material/.icons/material/variable.svg

<svg xmlns="http://www.w3.org/2000/svg" viewBox="0 0 24 24"><path d="M20.41 3c1.39 2.71 1.94 5.84 1.59 9-.2 3.16-1.3 6.29-3.17 9l-1.53-1c1.61-2.43 2.55-5.2 2.7-8 .34-2.8-.11-5.57-1.3-8l1.71-1M5.17 3L6.7 4C5.09 6.43 4.15 9.2 4 12c-.34 2.8.12 5.57 1.3 8l-1.69 1c-1.4-2.71-1.96-5.83-1.61-9 .2-3.16 1.3-6.29 3.17-9m6.91 7.68l2.32-3.23h2.53l-3.78 5 2.2 4.92h-2.26L11.71 14l-2.43 3.33H6.76l3.9-5.12-2.13-4.76h2.27l1.28 3.23z"/></svg>

<?xml version="1.0" encoding="UTF-8"?><!DOCTYPE svg PUBLIC "-//W3C//DTD SVG 1.1//EN" "http://www.w3.org/Graphics/SVG/1.1/DTD/svg11.dtd"><svg xmlns="http://www.w3.org/2000/svg" xmlns:xlink="http://www.w3.org/1999/xlink" version="1.1" id="mdi-variable" width="24" height="24" viewBox="0 0 24 24"><path d="M20.41,3C21.8,5.71 22.35,8.84 22,12C21.8,15.16 20.7,18.29 18.83,21L17.3,20C18.91,17.57 19.85,14.8 20,12C20.34,9.2 19.89,6.43 18.7,4L20.41,3M5.17,3L6.7,4C5.09,6.43 4.15,9.2 4,12C3.66,14.8 4.12,17.57 5.3,20L3.61,21C2.21,18.29 1.65,15.17 2,12C2.2,8.84 3.3,5.71 5.17,3M12.08,10.68L14.4,7.45H16.93L13.15,12.45L15.35,17.37H13.09L11.71,14L9.28,17.33H6.76L10.66,12.21L8.53,7.45H10.8L12.08,10.68Z" /></svg>
